X: 14281
T: Gaelic Roots
R: jig
M: 6/8
K: Dmajor
|:dcd fec|dfe dcA|=cBG =CDE|FGA ^cde|
ddd fec|dfe dcA|ged cde|1 fdd d3:|2 fdd def||
|:g3 ged|cde gfg|add bdd|afd Adf|
gba ged|cde gfg|afd gec|1 edd def:|2 fdB ecA||

